X:1
T:Title
%%score { 1 | 2 }
L:1/8
M:4/8
K:F
V:1 treble nm="Grand Piano"
V:2 bass 
V:1
 z2 z[Q:1/4=82] F/G/ | AAGF | F E2 [EG]/[FA]/ | [GB][GB][FA][EG] |[M:3/8] [CFA]3 | %5
[M:1/8] [CFA]/[CGB]/ |[M:2/4] [CAc][CAc] [CGB][CFA] | [DFB] [Fd]2 [Fd]/[Fd]/ | %8
 [Fc][Fc] [EB][B,EG] |[M:3/8] [A,F]3 |[M:1/8] [CFA]/[CGB]/ |[M:2/4] [CAc][CAc] [CAc]>[CFA] | %12
 [CAc]3 [CFA]/[B,EG]/ | [DF][DF] [DF]>[B,D] |[M:3/8] [DF]3 |[M:1/8] [DF]/[EG]/ |[M:2/4] AA A>G | %17
 A[Ac] [Ac][FA] | [EG]>[FA] [GB][FA] |[M:3/8] [EG]3 |[M:1/8] F/G/ |[M:2/4] AA GF | %22
 F E2 [EG]/[FA]/ | [GB][GB] [FA][EG] |[M:3/8] [CFA]3 |[M:1/8] [CFA]/[CGB]/ | %26
[M:2/4] [CAc][CAc] [CGB][CFA] | [DFB] [Fd]2 [Fd]/[Fd]/ | [Fc][Fc] [EB][EG] | %29
[M:11/8] F3 z z z z z z z2 |] %30
V:2
 z2 z [F,A,]/[F,B,E]/ | [F,CF][F,CF][F,B,E][F,A,] | [G,B,C] [G,B,C]2 [C,C]/[C,C]/ | %3
 [C,C][C,C][C,C][C,C] |[M:3/8] F,3 |[M:1/8] F,/F,/ |[M:2/4] F,F, F,F, | %7
 B,, [B,,B,]2 [B,,B,]/[B,,B,]/ | [C,A,][C,A,] [C,G,]C, |[M:3/8] F,3 |[M:1/8] F,/F,/ | %11
[M:2/4] F,F, F,>F, | F,3 F,/F,/ | [B,,B,][B,,B,] [B,,B,]>[B,,F,] |[M:3/8] [B,,B,]3 | %15
[M:1/8] [B,,B,]/[B,,B,]/ |[M:2/4] [F,CF][F,CF] [F,CF]>[F,CE] | [F,CF][F,C] [F,C][F,C] | %18
 [C,C]>[C,C] [C,C][C,C] |[M:3/8] [C,C]3 |[M:1/8] [F,A,]/[F,B,E]/ | %21
[M:2/4] [F,CF][F,CF] [F,B,E][F,A,] | [G,B,C] [G,B,C]2 [C,C]/[C,C]/ | [C,C][C,C] [C,C][C,C] | %24
[M:3/8] F,3 |[M:1/8] F,/F,/ |[M:2/4] F,F, F,F, | B,, [B,,B,]2 [B,,B,]/[B,,B,]/ | %28
 [C,A,][C,A,] [C,G,][C,B,] |[M:11/8] [F,A,]3 z z z z z z z2 |] %30

